src/assets/duotone/Blend2.svg

<svg width="24" height="24" viewBox="0 0 24 24"  xmlns="http://www.w3.org/2000/svg">
<path d="M12.5001 17.5298C12.3601 17.6798 12.1701 17.7498 11.9701 17.7498C11.7801 17.7498 11.5901 17.6798 11.4401 17.5298L9.8501 15.9398C10.4401 15.8698 11.0101 15.7298 11.5401 15.5098L12.5001 16.4698C12.8001 16.7598 12.8001 17.2398 12.5001 17.5298Z" />
<path d="M15.9601 15.9301C15.8201 16.0801 15.6201 16.1601 15.4301 16.1601C15.2401 16.1601 15.0501 16.0801 14.9001 15.9401L13.3701 14.4401C13.7601 14.1301 14.1201 13.7701 14.4301 13.3701L15.9501 14.8701C16.2501 15.1601 16.2501 15.6401 15.9601 15.9301Z" />
<path d="M17.5 12.5299C17.36 12.6799 17.17 12.7499 16.97 12.7499C16.78 12.7499 16.59 12.6799 16.44 12.5299L15.48 11.5699C15.7 11.0399 15.84 10.4699 15.91 9.87988L17.5 11.4699C17.8 11.7599 17.8 12.2399 17.5 12.5299Z" />
<path d="M15.9002 8.07C15.4502 4.64 12.5202 2 8.97021 2C5.10021 2 1.97021 5.13 1.97021 9C1.97021 12.55 4.61021 15.48 8.04021 15.93C8.34021 15.98 8.65021 16 8.97021 16C9.27022 16 9.56021 15.98 9.85021 15.94L9.47021 15.56C9.18021 15.26 9.18021 14.79 9.47021 14.5C9.76021 14.2 10.2402 14.2 10.5302 14.5L11.5402 15.51C12.2102 15.25 12.8202 14.89 13.3702 14.44L12.4702 13.55C12.1802 13.26 12.1702 12.79 12.4702 12.49C12.7602 12.2 13.2302 12.19 13.5302 12.48L14.4302 13.37C14.8702 12.83 15.2302 12.23 15.4802 11.57L14.4702 10.56C14.1802 10.26 14.1802 9.79 14.4702 9.5C14.7602 9.2 15.2402 9.2 15.5302 9.5L15.9102 9.88C15.9502 9.59 15.9702 9.3 15.9702 9C15.9702 8.68 15.9502 8.37 15.9002 8.07Z" />
<path opacity="0.4" d="M21.97 14.9998C21.97 18.8698 18.84 21.9998 14.97 21.9998C11.42 21.9998 8.49004 19.3598 8.04004 15.9298C8.34004 15.9798 8.65004 15.9998 8.97004 15.9998C9.27004 15.9998 9.56004 15.9798 9.85004 15.9398L11.44 17.5298C11.59 17.6798 11.78 17.7498 11.97 17.7498C12.17 17.7498 12.36 17.6798 12.5 17.5298C12.8 17.2398 12.8 16.7598 12.5 16.4698L11.54 15.5098C12.21 15.2498 12.82 14.8898 13.37 14.4398L14.9 15.9398C15.05 16.0798 15.24 16.1598 15.43 16.1598C15.62 16.1598 15.82 16.0798 15.96 15.9298C16.25 15.6398 16.25 15.1598 15.95 14.8698L14.43 13.3698C14.87 12.8298 15.23 12.2298 15.48 11.5698L16.44 12.5298C16.59 12.6798 16.78 12.7498 16.97 12.7498C17.17 12.7498 17.36 12.6798 17.5 12.5298C17.8 12.2398 17.8 11.7598 17.5 11.4698L15.91 9.87982C15.95 9.58982 15.97 9.29982 15.97 8.99982C15.97 8.67982 15.95 8.36982 15.9 8.06982C19.33 8.51982 21.97 11.4498 21.97 14.9998Z" />
</svg>

<?xml version="1.0" encoding="UTF-8"?>
<svg width="24" height="24" viewBox="0 0 24 24" xmlns="http://www.w3.org/2000/svg">
 <path d="m12.5 17.53c-0.14 0.15-0.33 0.22-0.53 0.22-0.19 0-0.38-0.07-0.53-0.22l-1.59-1.59c0.59-0.07 1.16-0.21 1.69-0.43l0.96 0.96c0.3 0.29 0.3 0.77 0 1.06z"/>
 <path d="m15.96 15.93c-0.14 0.15-0.34 0.23-0.53 0.23s-0.38-0.08-0.53-0.22l-1.53-1.5c0.39-0.31 0.75-0.67 1.06-1.07l1.52 1.5c0.3 0.29 0.3 0.77 0.01 1.06z"/>
 <path d="m17.5 12.53c-0.14 0.15-0.33 0.22-0.53 0.22-0.19 0-0.38-0.07-0.53-0.22l-0.96-0.96c0.22-0.53 0.36-1.1 0.43-1.69l1.59 1.59c0.3 0.29 0.3 0.77 0 1.06z"/>
 <path d="m15.9 8.07c-0.45-3.43-3.38-6.07-6.93-6.07-3.87 0-7 3.13-7 7 0 3.55 2.64 6.48 6.07 6.93 0.3 0.05 0.61 0.07 0.93 0.07 0.30001 0 0.59-0.02 0.88-0.06l-0.38-0.38c-0.29-0.3-0.29-0.77 0-1.06 0.29-0.3 0.76999-0.3 1.06 0l1.01 1.01c0.67-0.26 1.28-0.62 1.83-1.07l-0.9-0.89c-0.29-0.29-0.3-0.76 0-1.06 0.29-0.29 0.76-0.3 1.06-0.01l0.9 0.89c0.44-0.54 0.8-1.14 1.05-1.8l-1.01-1.01c-0.29-0.3-0.29-0.77 0-1.06 0.29-0.3 0.77-0.3 1.06 0l0.38 0.38c0.04-0.29 0.06-0.58 0.06-0.88 0-0.32-0.02-0.63-0.07-0.93z"/>
 <path d="m21.97 15c0 3.87-3.13 7-7 7-3.55 0-6.48-2.64-6.93-6.07 0.3 0.05 0.61 0.07 0.93 0.07 0.3 0 0.59-0.02 0.88-0.06l1.59 1.59c0.15 0.15 0.34 0.22 0.53 0.22 0.2 0 0.39-0.07 0.53-0.22 0.3-0.29 0.3-0.77 0-1.06l-0.96-0.96c0.67-0.26 1.28-0.62 1.83-1.07l1.53 1.5c0.15 0.14 0.34 0.22 0.53 0.22s0.39-0.08 0.53-0.23c0.29-0.29 0.29-0.77-0.01-1.06l-1.52-1.5c0.44-0.54 0.8-1.14 1.05-1.8l0.96 0.96c0.15 0.15 0.34 0.22 0.53 0.22 0.2 0 0.39-0.07 0.53-0.22 0.3-0.29 0.3-0.77 0-1.06l-1.59-1.59c0.04-0.29 0.06-0.58 0.06-0.88 0-0.32-0.02-0.63-0.07-0.93 3.43 0.45 6.07 3.38 6.07 6.93z" opacity=".4"/>
</svg>
